X:703
T:Samuell Dikstr\"omin Polska
C:trad
H:trad sov. S. Ahlb\"ack, M. Kalaniemi
N:original url: www.wolfram.claranet.de
N:Kyseinen polska lienee ainakin 200 vuotta vanha. Se on per\"aisin Samual Rinda-Nickolan 1800-luvun ensimm\"aisell\"a vuosikymmenell\"a kokoamasta "nuotti-kiriasta"
D:Maria Kalaniemi 1992
Z:Maike Rogler/Wolfram Dietz
M:3/4
L:1/16
K:Ddor
fafd fafd fafd | ege^c egec egec | d2^c2 B2d2 c2de  | d^cBA A2G2 F2D2 |
fafd fafd fafd | ege^c egec egec | d2^c2 B2d2  c2d2 |e2a2 g2ab a4 :|
DEFG A2A2 B4 | AGFG A2A2 B4 | A2GF G2E2 F3E | DEFG AB^cd e2g2| fed^c d2A2F2D2 |
DEFG AGFE B4 | Bd^cd AGFA GFEF | DEFG AB^cd e2g2 | fed^c e4d4 :|
